!!!COM: Mozart
!!!OTL: 12 Variations on "Ah Vous dirais-je, Maman" for the Piano
!!!Variation: 11 a2
**function	**harm	**kern	**kern
*	*	*clefF4	*clefG2
*	*	*k[]	*k[]
*M2/4	*M2/4	*M2/4	*M2/4
*C:	*C:	*C:	*C:
=281	=281	=281	=281
2T	2I	2r	(8.ccL
.	.	.	16gJk)
.	.	.	(8.eeL
.	.	.	16ccJk)
=282	=282	=282	=282
2T	2Ib	(8.cL	8gg
.	.	.	4gg
.	.	16GJk)	.
.	.	(8.eL	.
.	.	.	8gg
.	.	16cJk)	.
=283	=283	=283	=283
2T	2IV	(8.FL	8cc 8gg 8aa
.	.	.	4cc 4ff 4aa
.	.	16CJk)	.
.	.	(8.AL	.
.	.	.	8cc 8ff 8aa
.	.	16FJk)	.
=284	=284	=284	=284
2T	2I	(8.CL	8cc 8ff 8gg
.	.	.	4cc 4ee 4gg
.	.	16GGJk)	.
.	.	(8.EL	.
.	.	.	8cc 8ee 8gg
.	.	16CJk)	.
=285	=285	=285	=285
4T	4IVb	8A 8c 8f	(16ggLL
.	.	.	16ffJ)
.	.	8r	8ffJ
4T	4Vb	8B 8d 8g	16r
.	.	.	(32eeeLLL
.	.	.	32dddJJ)
.	.	8r	(32cccLL
.	.	.	32bb)
.	.	.	(32aa
.	.	.	32ggJJJ)
=286	=286	=286	=286
4T	4I	8c 8e 8g	(16.ffLL
.	.	.	32dd#Jk
.	.	8r	8eeJ)
4T	4Ib	8E 8G 8c	16r
.	.	.	(32aaLLL
.	.	.	32ggJJ)
.	.	8r	(32ffLL
.	.	.	32ee)
.	.	.	(32dd
.	.	.	32ccJJJ)
=287	=287	=287	=287
*	*	*^	*
4P	4iib	4d	4F	(16.bLL
.	.	.	.	32aJk)
.	.	.	.	(32ggLL
.	.	.	.	32ff
.	.	.	.	32ee
.	.	.	.	32ddJJJ
8D	8Cc	8eL	4G	8ccL)
8D	8V7	8dJ	.	8b'J
*	*	*v	*v	*
=288	=288	=288	=288
2T	2I	8cL	(4f 4g 4b 4dd
.	.	8GJ	.
.	.	8C	8e) 8g 8cc
.	.	8r	8r
*-	*-	*-	*-
